svg/ionicons/arrow-down-left-box.svg

<svg width="512" height="512" viewBox="0 0 512 512" xmlns="http://www.w3.org/2000/svg">
<path fill-rule="evenodd" clip-rule="evenodd" d="M180.364 480L48 480C43.7565 480 39.6869 478.314 36.6863 475.314C33.6857 472.313 32 468.244 32 464V331.636C32 322.8 39.1635 315.636 48 315.636C56.8365 315.636 64 322.8 64 331.636V425.373L115.128 374.245C117.747 378.961 121.028 383.333 124.911 387.216C128.749 391.054 133.065 394.304 137.719 396.908L86.6274 448L180.364 448C189.2 448 196.364 455.163 196.364 464C196.364 472.837 189.2 480 180.364 480ZM137.719 396.908C146.379 401.754 156.21 404.364 166.309 404.364L421.455 404.364C436.982 404.364 451.873 398.195 462.852 387.216C473.832 376.237 480 361.345 480 345.818L480 90.5454C480 75.0182 473.832 60.1269 462.852 49.1475C451.873 38.1681 436.982 32 421.455 32L166.182 32C150.655 32 135.763 38.1681 124.784 49.1475C113.805 60.1269 107.636 75.0182 107.636 90.5454L107.636 345.818C107.636 346.626 107.696 347.42 107.812 348.196C108.185 357.394 110.72 366.307 115.128 374.245L284.686 204.686C290.935 198.438 301.065 198.438 307.314 204.686C313.562 210.935 313.562 221.065 307.314 227.314L137.719 396.908Z" />
</svg>

<svg xmlns="http://www.w3.org/2000/svg" width="512" height="512" viewBox="0 0 512 512"><path fill-rule="evenodd" d="M180.364 480H48a16 16 0 01-16-16V331.636c0-8.836 7.163-16 16-16s16 7.164 16 16v93.737l51.128-51.128a58.5 58.5 0 0022.591 22.663L86.627 448h93.737c8.836 0 16 7.163 16 16s-7.164 16-16 16m-42.645-83.092a58.54 58.54 0 0028.59 7.456h255.146A58.545 58.545 0 00480 345.818V90.545A58.543 58.543 0 00421.455 32H166.182a58.545 58.545 0 00-58.546 58.545v255.273q.001 1.213.176 2.378a58.54 58.54 0 007.316 26.049l169.558-169.559c6.249-6.248 16.379-6.248 22.628 0s6.248 16.379 0 22.628z" clip-rule="evenodd"/></svg>
